X:636
T:
S:Efter »Florsen» i Burs.
R:kadrilj
O:Gotland, Burs
M:C
L:1/16
K:F
F2FF F2c2 A2f2c2a2|G2GG G2d2 B2g2d2b2|c2dc Bcde f2g2 a4|B2cB GBdf fege f4:|
|:f2ff fagf e2dd d4|d2dd dfed d2cc c4|.b2.b2 cegb .a2.a2 Acfa|agbg fede f2a2 f4:|
|:d3e f2d2 a2a2f2d2|a2a2f2d2 fed^c d4|f3g a2f2 c'2c'2a2f2|c'2c'2a2f2 agec f4:|
|:c4 cdcB A2F2A2c2|fAcf acfa c'4 b2e2|g4 gagf e2c2d2e2|fcfa gbeg f6 z2:|

